X:1
T:Hamburg
R:Hamburska
Z:C-G Magnusson, 2008-10-01
O:Nssemark, Dalsland
S:efter Karl Ludvig Magnusson, Nssemark
B:Svenska Ltar
N:Svenska Ltar, Dalsland nr 104
M:2/4
L:1/16
Q:110
K:D
A2A2 d2cB | A2d2 f4 | f2ef g2e2 | eede fdA2 |
A2A2 d2cB | A2d2 f4 | f2ef g2eg | f2d2 d4 :|
|: f2f2 a2^gf | e2d2 f4 | f2ef g2{ag}eg | b2a2 a4 |
f2f2 a2^gf | e2d2 f4 | f2ef g2{ag}eg | f2d2 d4 :|
